X: 544
U:~=!turn!
M:C|
L:1/8
K:F
c | A2 (cA) TB2 (dB) | {/d}c2 (Ac) BGGB | A2 (cA) Bcde | fcdB AFF :| f | a2 (fa) {/a}g2 (eg) | ~f2 (df) ecce |


